src/svg/Share_24.svg

<?xml version="1.0" encoding="UTF-8"?>
<svg width="24px" height="24px" viewBox="0 0 24 24" version="1.1" xmlns="http://www.w3.org/2000/svg" xmlns:xlink="http://www.w3.org/1999/xlink">
    <!-- Generator: Sketch 55.2 (78181) - https://sketchapp.com -->
    <title>Icons/Share/24</title>
    <desc>Created with Sketch.</desc>
    <g id="Icons/Share/24" stroke="none" stroke-width="1" fill="none" fill-rule="evenodd">
        <path d="M6,13 L6,21 L18,21 L18,13 L19,13 L19,22 L5,22 L5,13 L6,13 Z M12.5710678,3.91421356 L12.5710678,16.5710678 L11.5710678,16.5710678 L11.5710678,3.91421356 L5.70710678,9.77817459 L5,9.07106781 L12.0710678,2 L19.1421356,9.07106781 L18.4350288,9.77817459 L12.5710678,3.91421356 Z" id="Combined-Shape" fill="#000000" fill-rule="nonzero"></path>
    </g>
</svg>

<svg viewBox="0 0 24 24"><path d="M6 13v8h12v-8h1v9H5v-9h1zm6.571-9.086v12.657h-1V3.914L5.707 9.778 5 9.071 12.071 2l7.071 7.071-.707.707-5.864-5.864z" fill-rule="nonzero"/></svg>
